X:93
T:Old Torn Petticoat
M:4/4
L:1/8
S:Ador
R:Reel
D:Michael Tubridy: The Eagle's Whistle
K:Ador
ed | "Am"cdBc AGEF | "G"G2BG DG BG | "Am"cG BG AGED | "G"GABG "Am"A2AB |
!
"C"c2 "B"Bc "Am"AGEF | "G"G2BG DG BG | "Am"cGBG AGEF | "G"GABG "Am"A2 AB
|!
"C"cdBc AGEF | "G"G2BG dGBG | "Am"cGBG AG"G"ED | GA"Em"BG "Am"A2(c2 |!
"C"c2) (3BcB AGEF | "G"G2BG DGBG | "Am  (F)"cGBG AGED | "G"GABG "Am"A2 A
2 ||:!
"G"(3Bcd ef g2ea | "Am"{b}aged cAA2 | "G"(3Bcd ef ge dg | "Am"ea{b}ag a2
a2 |!
"G"bagb "Am"agef | "G"~g3 e "Em"dBGB | "F"c2 (3BcB AGED | "G"GABG "Am"A2
A2 :||
